flaticon/dialogue/chat-32.svg

<svg xmlns="http://www.w3.org/2000/svg" width="32" height="32" viewBox="0 0 24 24">
    <path d="M8 11.601562L12.398438 11.601562C12.621094 11.601562 12.800781 11.421875 12.800781 11.199219 12.800781 10.980469 12.621094 10.800781 12.398438 10.800781L8 10.800781C7.777344 10.800781 7.601562 10.980469 7.601562 11.199219 7.601562 11.421875 7.777344 11.601562 8 11.601562zM14.398438 13.601562L6 13.601562C5.777344 13.601562 5.601562 13.777344 5.601562 14 5.601562 14.222656 5.777344 14.398438 6 14.398438L14.398438 14.398438C14.621094 14.398438 14.800781 14.222656 14.800781 14 14.800781 13.777344 14.621094 13.601562 14.398438 13.601562zM14.398438 16.398438L6 16.398438C5.777344 16.398438 5.601562 16.578125 5.601562 16.800781 5.601562 17.019531 5.777344 17.199219 6 17.199219L14.398438 17.199219C14.621094 17.199219 14.800781 17.019531 14.800781 16.800781 14.800781 16.578125 14.621094 16.398438 14.398438 16.398438zM14.398438 16.398438"/>
    <path d="M 23.980469 19.074219 L 22.421875 14.394531 C 23.242188 12.949219 23.675781 11.308594 23.675781 9.636719 C 23.675781 4.324219 19.351562 0 14.039062 0 C 10.273438 0 6.855469 2.199219 5.285156 5.617188 C 2.328125 7.261719 0.324219 10.421875 0.324219 14.039062 C 0.324219 15.707031 0.757812 17.347656 1.582031 18.796875 L 0.0195312 23.472656 C -0.0273438 23.613281 0.0078125 23.765625 0.109375 23.875 C 0.183594 23.957031 0.292969 24 0.398438 24 C 0.433594 24 0.46875 23.996094 0.5 23.988281 L 5.617188 22.640625 C 6.957031 23.320312 8.457031 23.675781 9.960938 23.675781 C 13.746094 23.675781 17.027344 21.480469 18.605469 18.300781 L 23.496094 19.585938 C 23.53125 19.59375 23.566406 19.601562 23.601562 19.601562 C 23.707031 19.601562 23.816406 19.554688 23.890625 19.472656 C 23.992188 19.367188 24.027344 19.210938 23.980469 19.074219 Z M 9.960938 22.875 C 8.929688 22.875 7.90625 22.691406 6.941406 22.339844 L 8.265625 22.046875 C 8.480469 21.996094 8.617188 21.785156 8.570312 21.570312 C 8.523438 21.351562 8.308594 21.21875 8.09375 21.265625 L 5.578125 21.824219 C 5.574219 21.824219 5.570312 21.828125 5.570312 21.828125 C 5.566406 21.828125 5.5625 21.828125 5.5625 21.828125 L 1.011719 23.023438 L 2.394531 18.875 C 2.433594 18.765625 2.417969 18.644531 2.359375 18.546875 C 1.550781 17.183594 1.125 15.625 1.125 14.039062 C 1.125 10.582031 3.121094 7.582031 6.019531 6.128906 C 6.070312 6.105469 6.121094 6.078125 6.171875 6.054688 C 6.25 6.019531 6.332031 5.980469 6.414062 5.945312 C 6.492188 5.910156 6.566406 5.878906 6.644531 5.847656 C 6.710938 5.820312 6.777344 5.792969 6.847656 5.769531 C 6.964844 5.722656 7.082031 5.683594 7.199219 5.644531 C 7.230469 5.632812 7.265625 5.621094 7.300781 5.609375 C 7.464844 5.558594 7.632812 5.511719 7.800781 5.46875 C 7.804688 5.464844 7.8125 5.464844 7.820312 5.464844 C 7.976562 5.425781 8.136719 5.390625 8.296875 5.359375 C 8.332031 5.351562 8.367188 5.347656 8.398438 5.339844 C 8.53125 5.316406 8.667969 5.296875 8.800781 5.277344 C 8.84375 5.273438 8.886719 5.265625 8.933594 5.261719 C 9.0625 5.246094 9.191406 5.234375 9.320312 5.226562 C 9.363281 5.222656 9.40625 5.21875 9.453125 5.214844 C 9.621094 5.203125 9.792969 5.199219 9.960938 5.199219 C 14.835938 5.199219 18.800781 9.164062 18.800781 14.039062 C 18.800781 14.191406 18.796875 14.34375 18.789062 14.5 C 18.785156 14.570312 18.777344 14.636719 18.773438 14.707031 C 18.765625 14.789062 18.761719 14.871094 18.753906 14.953125 C 18.746094 15.035156 18.730469 15.117188 18.722656 15.195312 C 18.710938 15.265625 18.707031 15.332031 18.695312 15.402344 C 18.683594 15.484375 18.664062 15.5625 18.652344 15.644531 C 18.636719 15.710938 18.628906 15.78125 18.613281 15.847656 C 18.597656 15.921875 18.578125 15.996094 18.5625 16.074219 C 18.542969 16.144531 18.527344 16.21875 18.507812 16.289062 C 18.488281 16.359375 18.46875 16.425781 18.449219 16.496094 C 18.425781 16.574219 18.40625 16.652344 18.378906 16.726562 C 18.359375 16.789062 18.335938 16.851562 18.316406 16.914062 C 18.289062 16.996094 18.257812 17.078125 18.230469 17.15625 C 18.207031 17.21875 18.183594 17.277344 18.15625 17.339844 C 18.125 17.417969 18.09375 17.492188 18.058594 17.570312 C 16.695312 20.691406 13.578125 22.875 9.960938 22.875 Z M 18.933594 17.558594 C 18.941406 17.542969 18.945312 17.523438 18.953125 17.507812 C 19.046875 17.261719 19.128906 17.015625 19.207031 16.761719 C 19.21875 16.71875 19.230469 16.679688 19.242188 16.636719 C 19.308594 16.390625 19.371094 16.140625 19.421875 15.882812 C 19.429688 15.839844 19.4375 15.796875 19.445312 15.753906 C 19.488281 15.496094 19.527344 15.238281 19.554688 14.972656 C 19.558594 14.941406 19.558594 14.910156 19.5625 14.878906 C 19.585938 14.601562 19.601562 14.320312 19.601562 14.039062 C 19.601562 8.722656 15.277344 4.398438 9.960938 4.398438 C 9.675781 4.398438 9.394531 4.414062 9.117188 4.4375 C 9.09375 4.441406 9.074219 4.441406 9.050781 4.445312 C 8.773438 4.46875 8.5 4.507812 8.230469 4.558594 C 8.210938 4.5625 8.1875 4.566406 8.164062 4.570312 C 7.894531 4.621094 7.632812 4.683594 7.371094 4.757812 C 7.34375 4.765625 7.3125 4.773438 7.285156 4.78125 C 7.03125 4.855469 6.785156 4.9375 6.542969 5.027344 C 6.523438 5.035156 6.503906 5.039062 6.488281 5.046875 C 8.074219 2.4375 10.929688 0.800781 14.039062 0.800781 C 18.910156 0.800781 22.875 4.765625 22.875 9.636719 C 22.875 11.226562 22.449219 12.785156 21.640625 14.144531 C 21.582031 14.246094 21.566406 14.367188 21.605469 14.476562 L 22.988281 18.625 Z M 18.933594 17.558594"/>
</svg>

<svg xmlns="http://www.w3.org/2000/svg" width="32" height="32" viewBox="0 0 24 24">
    <path d="M8 11.602h4.398a.401.401 0 0 0 0-.8L8 10.8a.398.398 0 0 0-.398.398c0 .223.175.403.398.403zm0 0M14.398 13.602H6a.395.395 0 0 0-.398.398c0 .223.175.398.398.398h8.398a.398.398 0 1 0 0-.796zm0 0M14.398 16.398H6a.398.398 0 0 0-.398.403c0 .219.175.398.398.398h8.398a.401.401 0 1 0 0-.8zm0 0"/>
    <path d="M23.98 19.074l-1.558-4.68a9.643 9.643 0 0 0 1.254-4.757C23.676 4.324 19.352 0 14.039 0a9.639 9.639 0 0 0-8.754 5.617 9.627 9.627 0 0 0-3.703 13.18L.02 23.473a.402.402 0 0 0 .48.515l5.117-1.347a9.637 9.637 0 0 0 4.344 1.035c3.785 0 7.066-2.196 8.644-5.375l4.891 1.285c.035.008.07.016.106.016a.397.397 0 0 0 .289-.13.395.395 0 0 0 .09-.398zM9.96 22.875a8.83 8.83 0 0 1-3.019-.535l1.325-.293a.403.403 0 0 0 .304-.477.398.398 0 0 0-.476-.304l-2.516.558c-.004 0-.008.004-.008.004h-.008l-4.55 1.195 1.383-4.148a.388.388 0 0 0-.036-.328A8.84 8.84 0 0 1 6.02 6.129l.153-.074c.078-.035.16-.075.242-.11a5.808 5.808 0 0 1 .434-.175c.117-.047.234-.086.351-.125l.102-.036c.164-.05.332-.097.5-.14.004-.004.011-.004.02-.004.156-.04.316-.074.476-.106.035-.007.07-.011.101-.02.133-.023.27-.042.403-.062.043-.004.086-.011.133-.015.129-.016.257-.028.386-.035l.133-.012c.168-.012.34-.016.508-.016 4.875 0 8.84 3.965 8.84 8.84 0 .152-.004.305-.012.461-.004.07-.012.137-.016.207-.007.082-.011.164-.02.246-.007.082-.023.164-.03.242-.012.07-.016.137-.028.207-.011.082-.03.16-.043.243-.015.066-.023.136-.039.203-.015.074-.035.148-.05.226-.02.07-.036.145-.055.215l-.059.207c-.023.078-.043.156-.07.23-.02.063-.043.126-.063.188-.027.082-.058.164-.086.242a3.61 3.61 0 0 1-.074.184 5.807 5.807 0 0 1-.097.23c-1.364 3.121-4.48 5.305-8.098 5.305zm8.974-5.316c.007-.016.011-.036.02-.051.093-.246.175-.492.253-.746l.035-.125c.067-.246.13-.496.18-.754l.023-.13c.043-.257.082-.515.11-.78.004-.032.004-.063.008-.094a9.99 9.99 0 0 0 .039-.84c0-5.316-4.325-9.64-9.641-9.64-.285 0-.566.015-.844.038-.023.004-.043.004-.066.008-.278.024-.551.063-.82.114l-.067.011a9 9 0 0 0-.793.188l-.086.023c-.254.074-.5.157-.742.246-.02.008-.04.012-.055.02A8.846 8.846 0 0 1 14.04.8c4.871 0 8.836 3.965 8.836 8.836 0 1.59-.426 3.148-1.234 4.508a.398.398 0 0 0-.036.332l1.383 4.148zm0 0"/>
</svg>
